flaticon/transportation/ship-4.svg

<svg xmlns="http://www.w3.org/2000/svg" width="32" height="32" viewBox="0 0 24 24">
    <path d="M 23.707031 13.726562 L 21.953125 12.898438 L 21.953125 5.539062 C 21.953125 5.253906 21.722656 5.027344 21.441406 5.027344 L 16.859375 5.027344 L 16.859375 0.511719 C 16.859375 0.230469 16.628906 0 16.347656 0 L 7.648438 0 C 7.367188 0 7.136719 0.230469 7.136719 0.511719 L 7.136719 5.027344 L 2.554688 5.027344 C 2.273438 5.027344 2.042969 5.253906 2.042969 5.539062 L 2.042969 12.898438 L 0.289062 13.726562 C -0.121094 13.957031 0.00390625 14.363281 0.09375 14.484375 L 6.785156 23.789062 C 6.882812 23.921875 7.035156 24 7.203125 24 L 16.792969 24 C 16.957031 24 17.113281 23.921875 17.207031 23.789062 L 23.902344 14.484375 C 23.992188 14.363281 24.128906 13.964844 23.707031 13.726562 Z M 8.15625 1.019531 L 15.835938 1.019531 L 15.835938 5.027344 L 8.15625 5.027344 Z M 1.28125 14.386719 L 11.488281 9.566406 L 11.488281 22.980469 L 7.464844 22.980469 Z M 11.78125 8.296875 C 11.78125 8.300781 11.78125 8.300781 11.78125 8.300781 L 3.066406 12.414062 L 3.066406 6.046875 L 20.929688 6.046875 L 20.929688 12.414062 L 12.214844 8.300781 C 11.976562 8.183594 11.78125 8.296875 11.78125 8.296875 Z M 16.53125 22.980469 L 12.507812 22.980469 L 12.507812 9.566406 L 22.714844 14.386719 Z M 16.53125 22.980469"/>
    <path d="M 14.589844 13.140625 L 13.53125 12.382812 L 14.125 11.550781 L 15.183594 12.308594 Z M 8.8125 12.308594 L 9.40625 13.140625 L 10.464844 12.382812 L 9.871094 11.550781 Z M 8.8125 12.308594"/>
</svg>

<svg xmlns="http://www.w3.org/2000/svg" width="32" height="32" viewBox="0 0 24 24">
    <path d="M23.707 13.727l-1.754-.829V5.54a.511.511 0 0 0-.512-.512H16.86V.512A.513.513 0 0 0 16.348 0h-8.7a.513.513 0 0 0-.511.512v4.515H2.555a.511.511 0 0 0-.512.512v7.36l-1.754.828a.518.518 0 0 0-.195.757l6.691 9.305c.098.133.25.211.418.211h9.59c.164 0 .32-.078.414-.21l6.695-9.306c.09-.12.227-.52-.195-.757zM8.157 1.02h7.679v4.007h-7.68zM1.28 14.387l10.207-4.82V22.98H7.465zm10.5-6.09V8.3l-8.715 4.113V6.047H20.93v6.367l-8.715-4.113c-.238-.117-.434-.004-.434-.004zm4.75 14.683h-4.023V9.566l10.207 4.82zm0 0"/>
    <path d="M14.59 13.14l-1.059-.757.594-.832 1.059.758zm-5.777-.831l.593.832 1.059-.758-.594-.832zm0 0"/>
</svg>
